src/assets/filled/Size.svg

<svg width="24" height="24" viewBox="0 0 24 24"  xmlns="http://www.w3.org/2000/svg">
<path d="M21.97 5.5V9.5C21.97 11.2615 20.6704 12.7232 18.9685 12.9649C18.6951 13.0038 18.47 12.7761 18.47 12.5V12.25C18.47 8.53 15.45 5.5 11.72 5.5H11.47C11.1938 5.5 10.9662 5.27486 11.0054 5.0015C11.248 3.30678 12.7092 2 14.47 2H18.47C20.41 2 21.97 3.57 21.97 5.5Z" />
<path d="M11.72 7H10.97H6.96997C4.20997 7 1.96997 9.24 1.96997 12V17C1.96997 19.76 4.20997 22 6.96997 22H11.97C14.73 22 16.97 19.76 16.97 17V13V12.25C16.97 9.35 14.62 7 11.72 7Z" />
</svg>

<?xml version="1.0" encoding="UTF-8"?>
<svg width="24" height="24" viewBox="0 0 24 24" xmlns="http://www.w3.org/2000/svg">
 <path d="m21.97 5.5v4c0 1.7615-1.2996 3.2232-3.0015 3.4649-0.2734 0.0389-0.4985-0.1888-0.4985-0.4649v-0.25c0-3.72-3.02-6.75-6.75-6.75h-0.25c-0.2762 0-0.5038-0.22514-0.4646-0.4985 0.2426-1.6947 1.7038-3.0015 3.4646-3.0015h4c1.94 0 3.5 1.57 3.5 3.5z"/>
 <path d="m11.72 7h-4.75c-2.76 0-5 2.24-5 5v5c0 2.76 2.24 5 5 5h5c2.76 0 5-2.24 5-5v-4.75c0-2.9-2.35-5.25-5.25-5.25z"/>
</svg>
